X: 5023
T: Brian Boru's March
R: jig
M: 6/8
K: Aminor
B|:GFE E2B|GFE E2A|FED D2A|FED D2B|
GFE E2B|GFE E2A|EGA B2A|GFE E3:|
|:EGA B2A|B2A BAG|DFG A2F|A2F AFD|
EGA B2A|B2A BAG|EGA B2A|GFE E3:|

